actions/24/kr_syncbrowse_off.svg

<?xml version="1.0" encoding="UTF-8" standalone="no"?>
<svg
   width="24"
   height="24"
   version="1.1"
   id="svg9"
   sodipodi:docname="kr_syncbrowse_off.svg"
   inkscape:version="1.1.2 (0a00cf5339, 2022-02-04)"
   xmlns:inkscape="http://www.inkscape.org/namespaces/inkscape"
   xmlns:sodipodi="http://sodipodi.sourceforge.net/DTD/sodipodi-0.dtd"
   xmlns="http://www.w3.org/2000/svg"
   xmlns:svg="http://www.w3.org/2000/svg">
  <sodipodi:namedview
     id="namedview11"
     pagecolor="#000000"
     bordercolor="#666666"
     borderopacity="1.0"
     inkscape:pageshadow="2"
     inkscape:pageopacity="0"
     inkscape:pagecheckerboard="0"
     showgrid="false"
     inkscape:zoom="56.833333"
     inkscape:cx="12"
     inkscape:cy="11.982405"
     inkscape:window-width="1837"
     inkscape:window-height="967"
     inkscape:window-x="0"
     inkscape:window-y="29"
     inkscape:window-maximized="1"
     inkscape:current-layer="g7" />
  <defs
     id="defs3">
    <style
       id="current-color-scheme"
       type="text/css">
   .ColorScheme-Text { color:#eeeeec; } .ColorScheme-Highlight { color:#367bf0; } .ColorScheme-NeutralText { color:#ffcc44; } .ColorScheme-PositiveText { color:#3db47e; } .ColorScheme-NegativeText { color:#dd4747; }
  </style>
  </defs>
  <g
     transform="translate(4,4)"
     id="g7">
    <path
       style="opacity:0.35;fill:currentColor"
       class="ColorScheme-Text"
       d="M 2,1 C 2,1 1,1 1,2 v 11 c 0,0 0,1 1,1 h 12 c 0,0 1,0 1,-1 V 4 C 15,3 14,3 14,3 H 9 L 7,1 Z m 9.5,6.3705011 0.329931,-0.1159829 1.055603,0.8143222 v 0 l -0.0025,0.4349893 -1.024487,0.7914875 v 0 L 11.5,9.147675 V 8.7148 c -0.92,0 -1.666,0.7662 -1.666,1.7132 0,0.947 0.746,1.715 1.666,1.715 0.92,0 1.666,-0.768 1.666,-1.715 0,-0.237 0.188,-0.428 0.418,-0.428 0.23,0 0.416,0.192 0.416,0.428 v 0.043 C 13.976,11.871 12.867,13 11.5,13 10.119,13 9,11.848 9,10.428 9,9 10.119,7.8574 11.5,7.8574 Z"
       id="path5"
       sodipodi:nodetypes="cscscsscccccccccccccssssscssccc" />
  </g>
</svg>

<svg xmlns="http://www.w3.org/2000/svg" width="24" height="24" version="1.1">
 <defs>
  <style id="current-color-scheme" type="text/css">
   .ColorScheme-Text { color:#eeeeec; } .ColorScheme-Highlight { color:#367bf0; } .ColorScheme-NeutralText { color:#ffcc44; } .ColorScheme-PositiveText { color:#3db47e; } .ColorScheme-NegativeText { color:#dd4747; }
  </style>
 </defs>
 <g transform="translate(4,4)">
  <path style="opacity:.35;fill:currentColor" class="ColorScheme-Text" d="M 2,1 C 2,1 1,1 1,2 V 13 C 1,13 1,14 2,14 H 14 C 14,14 15,14 15,13 V 4 C 15,3 14,3 14,3 H 9 L 7,1 Z M 11.5,7 13.166,8.2852 11.5,9.5723 V 8.7148 C 10.58,8.7148 9.834,9.481 9.834,10.428 9.834,11.375 10.58,12.143 11.5,12.143 12.42,12.143 13.166,11.375 13.166,10.428 13.166,10.191 13.354,10 13.584,10 13.814,10 14,10.192 14,10.428 V 10.471 C 13.976,11.871 12.867,13 11.5,13 10.119,13 9,11.848 9,10.428 9,9 10.119,7.8574 11.5,7.8574 Z"/>
 </g>
</svg>
